X: 125003
T: YE BANKS AND BRAES
R: Waltz.
%R: waltz
B: James Kerr "Merry Melodies" v.1 p.25 s.0 #3
Z: 2017 John Chambers <jc:trillian.mit.edu>
M: 3/4
L: 1/4
K: D
uA |\
vd2vd | e>de | faf | ede |\
f>ed | dBA | ABd | e2 uA |\
vd2vd | e>de | faf | ede |\
f>ed | dBA | ABd | d2 |]
uf |\
(a2b) | (afd) | (a2b) | (afd) |\
afd | afd | baf | e2 uA |\
vd2vd | e>de | faf | ede |\
f>ed | dBA | "_D.C. to Allegro."ABd | d2 |]

%%sep 1 1 500
%%sep 1 1 500

